!! 00000] TT[WS
!!!OTL: Da guandeng
!!!ARE: Asia, China, Shanxi Qinyuan
!! Ethnic Group: Han
!! WI, 177 (1)
!!!SCT: J0210
!!!YEM: Copyright 1995, estate of Helmut Schaffrath.
**kern
*ICvox
*Ivox
*M2/4
*k[b-e-]
*B-:
{8r
8bb-
8aa
16gg
16aa
=1
8.gg
16dd
[4ff
=2
8ff]
8gg
8ddd
16ccc
16ddd
=3
8.bb-
16bb-
8gg
[8bb-
=4
8bb-]}
{8ccc
16aa
16gg
8aa
=5
8.gg
16dd
4ff
=6
8.gg
16bb-
8gg
8dd
=7
8.ff
16dd
4ff}
=8
{8bb-
8gg
4ddd
=9
16dd
16ff
16gg
16ff
4dd
=10
8bb-
16bb-
16gg
8bb-
16gg
16ff
=11
16dd
16ff
16gg
16ff
4dd}
=12
{8.bb-
16gg
8aa
16gg
16ff
=13
16dd
16ff
16gg
16ff
4dd
=14
16dd
16ff
8dd
16cc
16dd
[8ff
=15
16ff]
16gg
16bb-
16gg
[4bb-
=16
8bb-]}
{8ddd
8ccc#
8ddd
=17
16ddd
16fff
8ddd
8ccc
8aa
=18
8.gg
16ff
8dd
8ff
=19
8gg
16aa
16gg
4ff}
==
!!!AGN: Xiaodiao. Fengsuge, Qingge
!!!ONB: ESAC (Essen Associative Code) Database: CHINA
!!!AMT: simple duple
!!!AIN: vox
!!!EED: Helmut Schaffrath
!!!EEV: 1.0
*-
!!!ONB: Tied note syntax fixed by Craig Sapp, 2004/05/03/
